X: 5
T:Trip To Windsor
C: Dan R. Macdonald (1912-76)
R:reel
M:4/4
L:1/8
Q:1/4=200
K:A
|A2AB Ace=g|f2fe fefg|agfe fgaf|ecAc BAFE|
|A2AB Ace=g|f2fe fefg|agfe fgaf|[1 ecBc A3A:|[2 ecBc A2cd||
efec e/2f/2gae|faec BAcB|AFEC EFAE|FAEC B,A,CB,|
A,2CE FECE|A2cB Acea|fefg afed|[1 cABc A2cd:|[2 cABc A2c2|]
